src/images/networks/gnosis.svg

<svg width="150" height="150" viewBox="0 0 150 150" fill="none" xmlns="http://www.w3.org/2000/svg">
<circle class="bg" cx="75" cy="75" r="75" fill="#133629"/>
<path class="fg" d="M42.4477 69.1133C42.4477 66.1781 43.414 63.5042 45.0852 61.3874L62.772 79.0676C60.6166 80.7388 57.9406 81.705 55.0438 81.705C48.059 81.705 42.4112 76.0574 42.4477 69.1133ZM95.0643 81.6665C102.013 81.703 107.66 76.0574 107.66 69.0749C107.66 66.1781 106.694 63.5042 105.023 61.3489L87.3361 79.0291C89.453 80.7023 92.129 81.6665 95.0643 81.6665ZM74.9993 83.9697L36.5022 45.4898C37.5799 44.1164 38.7325 42.7774 39.9216 41.5154C48.764 32.2661 61.2121 26.4706 75.0358 26.4706C88.8594 26.4706 101.344 32.2661 110.15 41.5133C111.376 42.7389 112.528 44.1143 113.494 45.4513L74.9993 83.9697ZM45.1966 45.1555L75.0358 74.9818L104.875 45.1555C96.9603 37.1703 86.4062 32.7867 75.0358 32.7867C63.6653 32.7867 53.1497 37.1682 45.1966 45.1555ZM74.9993 123.529C101.79 123.529 123.528 101.8 123.528 75.0182C123.603 65.7689 121.038 57.1881 116.58 49.8713L108.74 57.7087C111.341 60.8283 112.901 64.7662 112.901 69.1498C112.901 78.9926 104.911 86.9799 95.0643 86.9799C90.717 86.9799 86.7405 85.4201 83.6188 82.8191L75.0358 91.4L66.4527 82.8191C63.3311 85.4201 59.393 86.9799 55.0073 86.9799C45.1602 86.9799 37.1707 78.9947 37.1707 69.1498C37.1707 64.8047 38.7305 60.8303 41.3315 57.7087L37.3206 53.6979L33.4939 49.8713C29.0353 57.2266 26.4707 65.8054 26.4707 75.0182C26.4687 101.836 48.2069 123.529 74.9993 123.529Z" fill="white"/>
</svg>

<svg xmlns="http://www.w3.org/2000/svg" width="150" height="150" fill="none"><circle cx="75" cy="75" r="75" fill="#133629" class="bg"/><path fill="#fff" d="M42.448 69.113c0-2.935.966-5.609 2.637-7.726l17.687 17.68a12.54 12.54 0 0 1-7.728 2.638c-6.985 0-12.633-5.648-12.596-12.592m52.616 12.554c6.949.036 12.596-5.61 12.596-12.592 0-2.897-.966-5.57-2.637-7.726l-17.687 17.68c2.117 1.673 4.793 2.638 7.728 2.638M75 83.97 36.502 45.49a58 58 0 0 1 3.42-3.975c8.842-9.249 21.29-15.044 35.114-15.044s26.308 5.795 35.114 15.042a33 33 0 0 1 3.344 3.938zM45.197 45.156l29.839 29.826 29.839-29.826c-7.915-7.986-18.469-12.37-29.84-12.37s-21.885 4.382-29.838 12.37m29.802 78.373c26.791 0 48.529-21.729 48.529-48.51a47.35 47.35 0 0 0-6.948-25.148l-7.84 7.838c2.601 3.12 4.161 7.057 4.161 11.44 0 9.844-7.99 17.83-17.837 17.83-4.347 0-8.323-1.559-11.445-4.16L75.036 91.4l-8.583-8.58c-3.122 2.6-7.06 4.16-11.446 4.16-9.847 0-17.836-7.985-17.836-17.83 0-4.345 1.56-8.32 4.16-11.441l-4.01-4.011-3.827-3.827a48.3 48.3 0 0 0-7.023 25.147c-.002 26.818 21.736 48.511 48.528 48.511" class="fg"/></svg>
